X:539
T:Domhnall Dubh
T:Black Donald
D:The Driven Bow, Alasdair Fraser 
Z:Nigel Gatherer
M:4/4
L:1/8
K:Edorian
E2 F<A c2 B<c | B>FA>F D>EF<D | 
E2 F<A c2 B<c | B>FA>F E2 E2 :|
G>E E2 E>FG>A | F>GF>E D>EF<D |
G>E E2 E>FG>A | B<BA<F E2 E2 :|
<end>
<start>
